Numix-GalliumOS/16/emblems/cs-xlet-update.svg

<?xml version="1.0" encoding="UTF-8" standalone="no"?>
<svg
   xmlns:dc="http://purl.org/dc/elements/1.1/"
   xmlns:cc="http://creativecommons.org/ns#"
   xmlns:rdf="http://www.w3.org/1999/02/22-rdf-syntax-ns#"
   xmlns:svg="http://www.w3.org/2000/svg"
   xmlns="http://www.w3.org/2000/svg"
   xmlns:sodipodi="http://sodipodi.sourceforge.net/DTD/sodipodi-0.dtd"
   xmlns:inkscape="http://www.inkscape.org/namespaces/inkscape"
   width="16"
   height="16"
   viewBox="0 0 16 16"
   id="svg2"
   version="1.1"
   inkscape:version="0.48.5 r10040"
   sodipodi:docname="cs-xlet-update.svg">
  <metadata
     id="metadata12">
    <rdf:RDF>
      <cc:Work
         rdf:about="">
        <dc:format>image/svg+xml</dc:format>
        <dc:type
           rdf:resource="http://purl.org/dc/dcmitype/StillImage" />
      </cc:Work>
    </rdf:RDF>
  </metadata>
  <defs
     id="defs10" />
  <sodipodi:namedview
     pagecolor="#ffffff"
     bordercolor="#666666"
     borderopacity="1"
     objecttolerance="10"
     gridtolerance="10"
     guidetolerance="10"
     inkscape:pageopacity="0"
     inkscape:pageshadow="2"
     inkscape:window-width="640"
     inkscape:window-height="480"
     id="namedview8"
     showgrid="false"
     inkscape:zoom="7.375"
     inkscape:cx="-0.48144891"
     inkscape:cy="10.161993"
     inkscape:window-x="0"
     inkscape:window-y="0"
     inkscape:window-maximized="0"
     inkscape:current-layer="svg2" />
  <path
     inkscape:connector-curvature="0"
     style="fill:#ffffff;stroke:#777777;stroke-width:0.26390609"
     d="m 14.535115,8.0000003 c 0,3.6093517 -2.925763,6.5351137 -6.5351153,6.5351137 -3.6093522,0 -6.5351152,-2.925762 -6.5351152,-6.5351137 0,-3.6093522 2.925763,-6.5351148 6.5351152,-6.5351148 3.6093523,0 6.5351153,2.9257626 6.5351153,6.5351148 z"
     id="path2991" />
  <path
     style="fill:#dc322f;fill-opacity:1"
     d="M 8.039062 3.332031 C 5.722656 3.332031 3.832031 5.292969 3.691406 7.765625 L 2.332031 7.765625 L 4.515625 11.304688 L 6.703125 7.765625 L 5.148438 7.765625 C 5.28125 6.164062 6.523438 4.910156 8.039062 4.910156 C 8.601562 4.910156 9.128906 5.082031 9.574219 5.378906 L 10.320312 4.035156 C 9.65625 3.59375 8.875 3.332031 8.039062 3.332031 Z M 11.484375 4.695312 L 9.296875 8.234375 L 10.851562 8.234375 C 10.71875 9.835938 9.476562 11.089844 7.960938 11.089844 C 7.398438 11.089844 6.871094 10.917969 6.425781 10.621094 L 5.679688 11.964844 C 6.34375 12.40625 7.125 12.667969 7.960938 12.667969 C 10.277344 12.667969 12.167969 10.707031 12.308594 8.234375 L 13.667969 8.234375 Z "
     id="path6" />
</svg>

<svg xmlns="http://www.w3.org/2000/svg" viewBox="0 0 16 16">
 <path d="m 14.535 8 c 0 3.609 -2.926 6.535 -6.535 6.535 -3.609 0 -6.535 -2.926 -6.535 -6.535 0 -3.609 2.926 -6.535 6.535 -6.535 3.609 0 6.535 2.926 6.535 6.535 z" style="fill:#fff;stroke:#777;stroke-width:0.264"/>
 <path d="m 8.04 3.332 c -2.316 0 -4.207 1.961 -4.348 4.434 l -1.359 0 l 2.184 3.539 l 2.188 -3.539 l -1.555 0 c 0.133 -1.602 1.375 -2.855 2.891 -2.855 c 0.563 0 1.09 0.172 1.535 0.469 l 0.746 -1.344 c -0.664 -0.441 -1.445 -0.703 -2.281 -0.703 m 3.445 1.363 l -2.188 3.539 l 1.555 0 c -0.133 1.602 -1.375 2.855 -2.891 2.855 c -0.563 0 -1.09 -0.172 -1.535 -0.469 l -0.746 1.344 c 0.664 0.441 1.445 0.703 2.281 0.703 c 2.316 0 4.207 -1.961 4.348 -4.434 l 1.359 0 Z" style="fill:#dc322f;fill-opacity:1"/>
</svg>
